X: 13
T: Roaring Barmaid, The
C: Tony Sullivan
Z: gian marco
S: https://thesession.org/tunes/91#setting52967
R: jig
M: 6/8
L: 1/8
K: Gmaj
|:GFG EGD|GFG EGD|DEG BGG|dGG BAB|
GFG EGD|GFG EGD|GAB deg|deg edB:|
|:deg bb2|bab deg|bb2 bag|edB deg|
b2b bab|agg bgg|agg egg|deg edB:|

%-------------------- TUNE SEPARATOR --------------------%

